app/assets/images/logo_shadow.svg

<svg height="62" viewBox="0 0 54 62" width="54" xmlns="http://www.w3.org/2000/svg" xmlns:xlink="http://www.w3.org/1999/xlink"><defs><path id="a" d="m198.048 73.06c-.408002.5760029-.821998.9959987-1.242 1.26s-.917997.396-1.494.396c-.552003 0-1.103997-.1799982-1.656-.54s-1.169997-.7559978-1.854-1.188-1.469996-.8279982-2.358-1.188-1.931994-.54-3.132-.54c-1.104006 0-2.069996.1559984-2.898.468s-1.517997.7439972-2.07 1.296-.965999 1.1999963-1.242 1.944-.414 1.5599956-.414 2.448c0 .9600048.269997 1.7639968.81 2.412s1.259995 1.2179975 2.16 1.71 1.913994.941998 3.042 1.35 2.285994.8519976 3.474 1.332 2.351994 1.0319969 3.492 1.656 2.159996 1.4039953 3.06 2.34 1.619997 2.0639934 2.16 3.384.81 2.9039908.81 4.752c0 2.6400132-.455995 5.123988-1.368 7.452s-2.219991 4.361991-3.924 6.102-3.773988 3.119995-6.21 4.14-5.177985 1.53-8.226 1.53c-1.512008 0-3.029992-.167998-4.554-.504s-2.987993-.809997-4.392-1.422-2.705994-1.337996-3.906-2.178-2.219996-1.775995-3.06-2.808l4.176-5.472c.312002-.408002.719997-.743999 1.224-1.008s1.007997-.396 1.512-.396c.672003 0 1.325997.233998 1.962.702s1.337996.983997 2.106 1.548 1.661995 1.079998 2.682 1.548 2.273993.702 3.762.702c2.184011 0 3.869994-.593994 5.058-1.782s1.782-2.945988 1.782-5.274c0-1.0800054-.269997-1.9679965-.81-2.664s-1.247996-1.2839976-2.124-1.764-1.877994-.9059981-3.006-1.278-2.279994-.7739978-3.456-1.206-2.327994-.9419971-3.456-1.53-2.129996-1.3559953-3.006-2.304-1.583997-2.1119931-2.124-3.492-.81-3.0779899-.81-5.094c0-2.3280116.437996-4.5659893 1.314-6.714s2.129992-4.0499917 3.762-5.706 3.611988-2.9759951 5.94-3.96 4.943985-1.476 7.848-1.476c1.488007 0 2.933993.1559984 4.338.468s2.717994.7439972 3.942 1.296 2.339995 1.2059962 3.348 1.962 1.859997 1.5779956 2.556 2.466zm11.468 15.714-1.26 10.332c-.132001 1.092005-.329999 2.180995-.594 3.267s-.569998 2.198994-.918 3.339h-3.636c-.024-.456002-.045-.905998-.063-1.35s-.027-.887998-.027-1.332c0-.660003.018-1.313997.054-1.962s.096-1.3019967.18-1.962l1.26-10.332zm-8.28 23.4c0-.432002.080999-.833998.243-1.206s.383999-.695999.666-.972.614998-.494999.999-.657.803998-.243 1.26-.243c.444002 0 .857998.080999 1.242.243s.719999.380999 1.008.657.512999.599998.675.972.243.773998.243 1.206-.080999.836998-.243 1.215-.386999.704999-.675.981-.623998.491999-1.008.648-.797998.234-1.242.234c-.456002 0-.875998-.077999-1.26-.234s-.716999-.371999-.999-.648-.503999-.602998-.666-.981-.243-.782998-.243-1.215z"/><filter id="b" height="126.2%" width="130.1%" x="-12.9%" y="-9.3%"><feOffset dx="1" dy="2" in="SourceAlpha" result="shadowOffsetOuter1"/><feGaussianBlur in="shadowOffsetOuter1" result="shadowBlurOuter1" stdDeviation="2"/><feColorMatrix in="shadowBlurOuter1" type="matrix" values="0 0 0 0 0   0 0 0 0 0   0 0 0 0 0  0 0 0 0.952558877 0"/></filter></defs><g fill="none" fill-rule="evenodd" transform="translate(-161 -60)"><use fill="#000" filter="url(#b)" xlink:href="#a"/><use fill="#fff" fill-rule="evenodd" xlink:href="#a"/></g></svg>

<svg width="54px" height="62px" viewBox="0 0 54 62" version="1.1" xmlns="http://www.w3.org/2000/svg" xmlns:xlink="http://www.w3.org/1999/xlink">
    <!-- Generator: Sketch 49 (51002) - http://www.bohemiancoding.com/sketch -->
    <desc>Created with Sketch.</desc>
    <defs>
        <path d="M198.048,73.06 C197.639998,73.6360029 197.226002,74.0559987 196.806,74.32 C196.385998,74.5840013 195.888003,74.716 195.312,74.716 C194.759997,74.716 194.208003,74.5360018 193.656,74.176 C193.103997,73.8159982 192.486003,73.4200022 191.802,72.988 C191.117997,72.5559978 190.332004,72.1600018 189.444,71.8 C188.555996,71.4399982 187.512006,71.26 186.312,71.26 C185.207994,71.26 184.242004,71.4159984 183.414,71.728 C182.585996,72.0400016 181.896003,72.4719972 181.344,73.024 C180.791997,73.5760028 180.378001,74.2239963 180.102,74.968 C179.825999,75.7120037 179.688,76.5279956 179.688,77.416 C179.688,78.3760048 179.957997,79.1799968 180.498,79.828 C181.038003,80.4760032 181.757995,81.0459975 182.658,81.538 C183.558005,82.0300025 184.571994,82.479998 185.7,82.888 C186.828006,83.296002 187.985994,83.7399976 189.174,84.22 C190.362006,84.7000024 191.525994,85.2519969 192.666,85.876 C193.806006,86.5000031 194.825996,87.2799953 195.726,88.216 C196.626004,89.1520047 197.345997,90.2799934 197.886,91.6 C198.426003,92.9200066 198.696,94.5039908 198.696,96.352 C198.696,98.9920132 198.240005,101.475988 197.328,103.804 C196.415995,106.132012 195.108009,108.165991 193.404,109.906 C191.699991,111.646009 189.630012,113.025995 187.194,114.046 C184.757988,115.066005 182.016015,115.576 178.968,115.576 C177.455992,115.576 175.938008,115.408002 174.414,115.072 C172.889992,114.735998 171.426007,114.262003 170.022,113.65 C168.617993,113.037997 167.316006,112.312004 166.116,111.472 C164.915994,110.631996 163.896004,109.696005 163.056,108.664 L167.232,103.192 C167.544002,102.783998 167.951997,102.448001 168.456,102.184 C168.960003,101.919999 169.463997,101.788 169.968,101.788 C170.640003,101.788 171.293997,102.021998 171.93,102.49 C172.566003,102.958002 173.267996,103.473997 174.036,104.038 C174.804004,104.602003 175.697995,105.117998 176.718,105.586 C177.738005,106.054002 178.991993,106.288 180.48,106.288 C182.664011,106.288 184.349994,105.694006 185.538,104.506 C186.726006,103.317994 187.32,101.560012 187.32,99.232 C187.32,98.1519946 187.050003,97.2640035 186.51,96.568 C185.969997,95.8719965 185.262004,95.2840024 184.386,94.804 C183.509996,94.3239976 182.508006,93.8980019 181.38,93.526 C180.251994,93.1539981 179.100006,92.7520022 177.924,92.32 C176.747994,91.8879978 175.596006,91.3780029 174.468,90.79 C173.339994,90.2019971 172.338004,89.4340047 171.462,88.486 C170.585996,87.5379953 169.878003,86.3740069 169.338,84.994 C168.797997,83.6139931 168.528,81.9160101 168.528,79.9 C168.528,77.5719884 168.965996,75.3340107 169.842,73.186 C170.718004,71.0379893 171.971992,69.1360083 173.604,67.48 C175.236008,65.8239917 177.215988,64.5040049 179.544,63.52 C181.872012,62.5359951 184.487985,62.044 187.392,62.044 C188.880007,62.044 190.325993,62.1999984 191.73,62.512 C193.134007,62.8240016 194.447994,63.2559972 195.672,63.808 C196.896006,64.3600028 198.011995,65.0139962 199.02,65.77 C200.028005,66.5260038 200.879997,67.3479956 201.576,68.236 L198.048,73.06 Z M209.516,88.774 L208.256,99.106 C208.123999,100.198005 207.926001,101.286995 207.662,102.373 C207.397999,103.459005 207.092002,104.571994 206.744,105.712 L203.108,105.712 C203.084,105.255998 203.063,104.806002 203.045,104.362 C203.027,103.917998 203.018,103.474002 203.018,103.03 C203.018,102.369997 203.036,101.716003 203.072,101.068 C203.108,100.419997 203.168,99.7660033 203.252,99.106 L204.512,88.774 L209.516,88.774 Z M201.236,112.174 C201.236,111.741998 201.316999,111.340002 201.479,110.968 C201.641001,110.595998 201.862999,110.272001 202.145,109.996 C202.427001,109.719999 202.759998,109.501001 203.144,109.339 C203.528002,109.176999 203.947998,109.096 204.404,109.096 C204.848002,109.096 205.261998,109.176999 205.646,109.339 C206.030002,109.501001 206.365999,109.719999 206.654,109.996 C206.942001,110.272001 207.166999,110.595998 207.329,110.968 C207.491001,111.340002 207.572,111.741998 207.572,112.174 C207.572,112.606002 207.491001,113.010998 207.329,113.389 C207.166999,113.767002 206.942001,114.093999 206.654,114.37 C206.365999,114.646001 206.030002,114.861999 205.646,115.018 C205.261998,115.174001 204.848002,115.252 204.404,115.252 C203.947998,115.252 203.528002,115.174001 203.144,115.018 C202.759998,114.861999 202.427001,114.646001 202.145,114.37 C201.862999,114.093999 201.641001,113.767002 201.479,113.389 C201.316999,113.010998 201.236,112.606002 201.236,112.174 Z" id="path-1"></path>
        <filter x="-12.9%" y="-9.3%" width="130.1%" height="126.2%" filterUnits="objectBoundingBox" id="filter-2">
            <feOffset dx="1" dy="2" in="SourceAlpha" result="shadowOffsetOuter1"></feOffset>
            <feGaussianBlur stdDeviation="2" in="shadowOffsetOuter1" result="shadowBlurOuter1"></feGaussianBlur>
            <feColorMatrix values="0 0 0 0 0   0 0 0 0 0   0 0 0 0 0  0 0 0 0.952558877 0" type="matrix" in="shadowBlurOuter1"></feColorMatrix>
        </filter>
    </defs>
    <g id="Page-1" stroke="none" stroke-width="1" fill="none" fill-rule="evenodd">
        <g id="Desktop" transform="translate(-161.000000, -60.000000)">
            <g id="S!">
                <use fill="black" fill-opacity="1" filter="url(#filter-2)" xlink:href="#path-1"></use>
                <use fill="#FFFFFF" fill-rule="evenodd" xlink:href="#path-1"></use>
            </g>
        </g>
    </g>
</svg>
